static/images/mobile/copyright/wikipedia-wordmark-la.svg

<?xml version="1.0" encoding="UTF-8"?>
<svg width="120px" height="20px" viewBox="0 0 120 20" version="1.1" xmlns="http://www.w3.org/2000/svg" xmlns:xlink="http://www.w3.org/1999/xlink">
    <title>wikipedia-wordmark-la</title>
    <g id="Page-1" stroke="none" stroke-width="1" fill="none" fill-rule="evenodd">
        <path d="M17.8615391,0.316898275 L17.919157,0.374516143 L17.919157,0.921885891 C17.919157,1.06593056 17.8327291,1.15235736 17.6886855,1.15235736 C16.1041952,1.23878417 15.6144412,2.01662539 15.2111172,3.05374701 L9.36290358,18.6393804 C9.19004998,19.0715144 8.98838637,19.3019858 8.67148916,19.3019858 C8.38339982,19.3019858 8.15292728,19.0715144 8.00888368,18.6393804 L2.41995046,2.93851128 C1.98781645,1.72853605 1.72853391,1.29640203 0.230471473,1.15235736 C0.115235736,1.15235736 -1.8189894e-12,1.06593056 -1.8189894e-12,0.921885891 L-1.8189894e-12,0.374516143 L0.0576178682,0.316898275 C0.0576178682,0.316898275 0.935390496,0.339405255 1.86802352,0.35628549 L2.24205201,0.362670803 C2.67728071,0.369614623 3.10056184,0.374516143 3.42826316,0.374516143 L3.56064784,0.374224386 C4.62228246,0.369814685 6.71248164,0.316898275 6.71248164,0.316898275 L6.77009951,0.374516143 L6.77009951,0.921885891 C6.77009951,1.06593056 6.68367164,1.12354843 6.53962804,1.15235736 L6.04987616,1.20997523 C4.69585626,1.38282884 4.46538479,1.61330031 4.78228306,2.47756833 L9.33409465,15.297544 L9.44933038,15.297544 L13.9435241,2.67923087 C14.3468481,1.58449138 13.7418605,1.23878417 12.675931,1.1811663 L12.2149881,1.15235736 C12.0997523,1.15235736 11.9845166,1.06593056 11.9845166,0.921885891 L11.9845166,0.374516143 L12.0421345,0.316898275 C12.0421345,0.316898275 12.8411327,0.339405255 13.7146849,0.35628549 L14.0663648,0.362670803 C14.4772901,0.369614623 14.8834159,0.374516143 15.2111172,0.374516143 L15.3592275,0.374136628 C16.3720967,0.36915938 17.8615391,0.316898275 17.8615391,0.316898275 Z M17.4370566,5.64655108 C17.4370566,5.64655108 19.7129634,5.70416895 20.6060393,5.70416895 C20.8765928,5.70416895 21.3214158,5.69719817 21.786545,5.68810585 L22.1367936,5.68096458 C22.8934905,5.6649583 23.6021685,5.64655108 23.6021685,5.64655108 L23.6309774,5.70416895 L23.6309774,6.3379655 C23.6309774,6.4243923 23.5733595,6.48201017 23.4581238,6.48201017 L22.8531362,6.53962804 C21.9600603,6.62605484 21.6431609,6.85652632 21.6431609,7.432705 L21.6431609,17.0260801 C21.6431609,17.6598766 21.9312514,18.0343927 22.8531362,18.1208195 L23.4581238,18.1784374 C23.5445506,18.1784374 23.6309774,18.2360553 23.6309774,18.351291 L23.6309774,18.9562786 L23.6021685,19.0138965 C23.6021685,19.0138965 21.4126895,18.9562786 20.5196125,18.9562786 L20.4065316,18.9565959 C19.5218114,18.96118 17.4658655,19.0138965 17.4658655,19.0138965 L17.4082476,18.9562786 L17.4082476,18.351291 C17.4082476,18.2360553 17.4946755,18.1784374 17.6099102,18.1784374 L18.1860889,18.1208195 C19.1367837,18.0343927 19.424873,17.5734498 19.424873,17.0260801 L19.424873,7.432705 C19.424873,6.79890845 19.0791658,6.62605484 18.1860889,6.53962804 L17.6099102,6.48201017 C17.4946744,6.48201017 17.4082476,6.45320124 17.4082476,6.36677444 L17.4082476,5.70416895 Z M37.4678188,16.593946 L36.8916401,16.1330031 C35.5664302,17.6886855 34.5581143,18.2648642 32.6279179,18.2648642 C29.1420401,18.2648642 28.1049152,15.0670725 28.1049152,12.2149881 C28.1049152,7.37508713 30.3520142,6.2515387 32.5126822,6.2515387 C35.0190573,6.2515387 36.2866525,7.63436754 36.6323597,9.65099292 L37.381392,9.56456612 C37.2085384,8.38339982 37.0644937,7.17342459 37.0356848,5.87702256 C35.9409464,5.87702256 34.6445411,5.41607961 32.3398286,5.41607961 C28.5370535,5.41607961 25.598538,8.29697302 25.598538,12.5030774 C25.598538,15.8161048 28.0473016,19.244368 32.4838732,19.244368 C34.7309679,19.244368 36.1138,18.4089089 37.4678188,16.593946 Z M45.0787796,6.53962804 L45.6837672,6.48201017 C45.7990019,6.48201017 45.8566209,6.4243923 45.8566209,6.3379655 L45.8566209,5.70416895 L45.8278119,5.64655108 C45.8278119,5.64655108 43.6095229,5.70416895 42.8316828,5.70416895 C41.9386058,5.70416895 39.6627,5.64655108 39.6627,5.64655108 L39.6338911,5.70416895 L39.6338911,6.36677444 C39.6338911,6.45320124 39.7203179,6.48201017 39.8355536,6.48201017 L40.4117323,6.53962804 C41.3048082,6.62605484 41.6505165,6.79890845 41.6505165,7.432705 L41.6505165,17.0260801 C41.6505165,17.5734498 41.3624261,18.0343927 40.4117323,18.1208195 L39.8355536,18.1784374 C39.7203179,18.1784374 39.6338911,18.2360553 39.6338911,18.351291 L39.6338911,18.9562786 L39.691509,19.0138965 C39.691509,19.0138965 41.9386058,18.9562786 42.745256,18.9562786 C43.6383319,18.9562786 45.8278119,19.0138965 45.8278119,19.0138965 L45.8566209,18.9562786 L45.8566209,18.351291 C45.8566209,18.2360553 45.770194,18.1784374 45.6837672,18.1784374 L45.0787796,18.1208195 C44.1568937,18.0343927 43.8688044,17.6598766 43.8688044,17.0260801 L43.8688044,7.432705 C43.8688044,6.85652632 44.1857027,6.62605484 45.0787796,6.53962804 Z M53.7588208,5.64655108 C57.8496852,5.64655108 58.5987217,7.66317647 58.5987217,9.16124104 C58.5987217,10.8897771 57.7632584,13.5978169 53.672394,13.5978169 C52.9521717,13.5978169 52.3759919,13.540199 51.8574311,13.3097276 L51.8574311,17.1701247 C51.8574311,17.8039213 52.2031394,17.9479659 53.1250242,18.0920106 L53.7012029,18.1784374 C53.8164386,18.2072464 53.9028655,18.2360553 53.9028655,18.351291 L53.9028655,18.9562786 L53.8740565,19.0138965 C53.8740565,19.0138965 51.5693407,18.9562786 50.6762648,18.9562786 L50.5636598,18.9565959 C49.6858157,18.96118 47.7089446,19.0138965 47.7089446,19.0138965 L47.6801357,18.9562786 L47.6801357,18.351291 C47.6801357,18.2360553 47.7377536,18.2072464 47.8529893,18.1784374 L48.4579769,18.0920106 C49.3510528,17.9767749 49.6391432,17.7174945 49.6391432,17.1701247 L49.6391432,7.49032287 C49.6391432,6.59724591 49.264626,6.56843697 47.9106072,6.48201017 C47.7377536,6.48201017 47.7089446,6.39558337 47.7089446,6.3379655 L47.7089446,5.67536002 L47.7665625,5.64655108 C48.1986965,5.64655108 49.8984247,5.70416895 50.7338827,5.70416895 C51.5405318,5.70416895 52.6928913,5.64655108 53.7588208,5.64655108 Z M62.7291941,5.64655108 C62.7291941,5.64655108 64.6334022,5.6898285 66.5664594,5.70136915 L67.012208,5.70343486 C67.1603925,5.70391287 67.3078942,5.70416895 67.4538593,5.70416895 L71.4006833,5.70416895 C72.2649502,5.70416895 74.3103856,5.64655108 74.3103856,5.64655108 L74.3680035,5.70416895 C74.3968124,6.94295312 74.5984749,8.06650155 74.8001375,9.16124104 L74.0799141,9.27647678 C73.7630159,8.21054622 73.215644,6.68367271 71.3718743,6.68367271 L69.3552489,6.68367271 C68.8078792,6.68367271 68.5197899,6.85652632 68.5197899,7.3462782 L68.5197899,11.8404719 L70.2771348,11.8404719 C71.054975,11.8404719 71.2566386,11.4947647 71.4006833,10.918586 L71.5447279,10.3135984 C71.5735369,10.1983627 71.6311547,10.1407448 71.7175815,10.1407448 L72.2073334,10.1407448 C72.2649513,10.1407448 72.2937602,10.1695537 72.2937602,10.2271716 C72.2361424,10.8897771 72.1209066,11.6964272 72.1209066,12.3878417 C72.1209066,13.108065 72.2073334,13.6842437 72.2937602,14.3756581 L72.2361424,14.433276 L71.7175815,14.433276 C71.6023458,14.433276 71.5447279,14.3468492 71.515919,14.2892313 L71.4006833,13.6554348 C71.2566386,13.0504471 71.0261661,12.7623578 70.2771348,12.7623578 L68.5197899,12.7623578 L68.5197899,17.2565515 C68.5197899,17.8039213 68.8654971,17.9767749 69.3552489,17.9767749 L71.4006833,17.9767749 C73.1580261,17.9767749 73.8206337,16.8244175 74.2527677,15.3839708 L75.0018,15.4703976 C74.6560928,16.8820354 74.4256213,18.0343927 74.3968124,18.9562786 L67.3259264,18.956625 C66.2055525,18.9613976 64.6305837,19.0138965 64.6305837,19.0138965 L64.6017748,18.9562786 L64.6017748,18.3224821 C64.6017748,18.2648642 64.6305837,18.1784374 64.7458195,18.1784374 L65.2355714,18.1208195 C66.1574562,18.0055838 66.4167377,17.7751123 66.4167377,17.1989337 L66.4167377,12.7335489 L63.190137,12.7335489 C62.6427673,12.7335489 62.4699137,12.8775935 62.354678,13.108065 L60.2804347,17.2565515 C60.0211543,17.7751123 60.3668626,17.8615391 61.2311295,18.1208195 L61.5192189,18.1784374 C61.6056457,18.2072464 61.6920725,18.2648642 61.6920725,18.351291 L61.6920725,18.9562786 L61.6632635,19.0138965 C61.6632635,19.0138965 59.3009299,18.9562786 58.7535612,18.9562786 L58.6439452,18.9569257 C58.0631596,18.9632558 57.0250251,19.0138965 57.0250251,19.0138965 L56.9962162,18.9562786 L56.9962162,18.351291 C56.9962162,18.2648642 57.0538341,18.1784374 57.1690698,18.1784374 C58.1197636,18.0920106 58.6671344,17.6022587 58.8976059,17.1989337 C59.4737835,16.2770478 60.7989966,13.8282884 61.6920725,12.0997523 C62.1530143,11.1778664 63.7951247,7.89364794 63.7951247,7.08699779 C63.7951247,6.74129058 63.5934611,6.56843697 62.8444298,6.48201017 C62.6715762,6.45320124 62.6715762,6.39558337 62.6715762,6.36677444 L62.6715762,5.70416895 Z M53.5859672,6.48201017 C52.2031405,6.48201017 51.8574311,6.74129058 51.8574311,7.49032287 L51.8574311,12.5030774 C52.4336098,12.7335489 53.1538342,12.7623578 53.7300118,12.7623578 C55.4585468,12.7623578 56.294007,11.7252362 56.294007,9.50694825 C56.294007,7.02937992 55.1704575,6.48201017 53.5859672,6.48201017 Z M65.7829411,6.48201017 C65.4948518,6.48201017 65.1203356,6.94295312 64.8034374,7.63436754 L63.1037102,11.5523826 C63.0749013,11.6100004 63.0460924,11.6676183 63.0460924,11.6964272 C63.0460924,11.811663 63.218946,11.8404719 63.6222711,11.8404719 L66.4167377,11.8404719 L66.4167377,7.6919854 C66.4167377,6.79890845 66.1574573,6.48201017 65.7829411,6.48201017 Z M76.8487227,18.9562786 L76.8775316,19.0138965 C76.8775316,19.0138965 79.0670116,18.9562786 79.9312786,18.9562786 C80.8243545,18.9562786 81.8326704,19.0138965 84.137383,19.0138965 C87.3351715,19.0138965 90.9074825,17.5158319 90.9074825,12.4742685 C90.9074825,8.64268023 88.5451446,5.64655108 83.7340579,5.64655108 C82.9850267,5.64655108 80.4786473,5.70416895 79.9312786,5.70416895 C79.4127178,5.70416895 76.8775316,5.64655108 76.8775316,5.64655108 L76.8487227,5.70416895 L76.8487227,6.3379655 C76.8487227,6.4243923 76.9351495,6.48201017 77.0503852,6.48201017 L77.6841817,6.53962804 C78.6348755,6.62605484 78.8365391,6.62605484 78.8365391,7.37508713 L78.8365391,16.8820354 C78.8365391,17.7751123 78.5484487,18.0343927 77.6841817,18.1208195 L77.0215763,18.1784374 C76.9063405,18.1784374 76.8487227,18.2648642 76.8487227,18.351291 L76.8487227,18.9562786 Z M81.054827,7.37508713 C81.054827,6.65486378 81.7750514,6.48201017 82.8985988,6.48201017 C87.7384944,6.48201017 88.4011052,9.9678912 88.4011052,12.9640203 C88.4011052,16.9972711 86.6149481,18.1784374 83.4459686,18.1784374 C81.2564917,18.1784374 81.054827,17.6886855 81.054827,16.8820354 L81.054827,7.37508713 Z M98.4423706,6.53962804 L99.0473583,6.48201017 C99.162594,6.48201017 99.2202119,6.4243923 99.2202119,6.3379655 L99.2202119,5.70416895 L99.1914029,5.64655108 C99.1914029,5.64655108 96.973115,5.70416895 96.1952738,5.70416895 C95.3021968,5.70416895 93.02629,5.64655108 93.02629,5.64655108 L92.997481,5.70416895 L92.997481,6.36677444 C92.997481,6.45320124 93.0839078,6.48201017 93.1991436,6.48201017 L93.7753233,6.53962804 C94.6684003,6.62605484 95.0141075,6.79890845 95.0141075,7.432705 L95.0141075,17.0260801 C95.0141075,17.5734498 94.7260181,18.0343927 93.7753233,18.1208195 L93.1991436,18.1784374 C93.0839078,18.1784374 92.997481,18.2360553 92.997481,18.351291 L92.997481,18.9562786 L93.0550989,19.0138965 C93.0550989,19.0138965 95.3021968,18.9562786 96.108847,18.9562786 C97.0019239,18.9562786 99.1914029,19.0138965 99.1914029,19.0138965 L99.2202119,18.9562786 L99.2202119,18.351291 C99.2202119,18.2360553 99.1337851,18.1784374 99.0473583,18.1784374 L98.4423706,18.1208195 C97.5204848,18.0343927 97.2323954,17.6598766 97.2323954,17.0260801 L97.2323954,7.432705 C97.2323954,6.85652632 97.5492937,6.62605484 98.4423706,6.53962804 Z M106.978362,10.4288341 L109.859255,3.11136488 L109.916873,3.11136488 L112.71134,10.8033503 L107.698585,10.8033503 C107.064789,10.8033503 106.863126,10.7169235 106.978362,10.4288341 Z M106.171712,12.5030774 C106.315756,12.1285613 106.48861,12.0133255 107.180024,12.0133255 L113.172283,12.0133255 L114.929628,16.8820354 C115.217717,17.6886855 114.814392,18.0343927 113.719652,18.1208195 L112.913002,18.1784374 C112.768958,18.1784374 112.71134,18.2648642 112.71134,18.4089089 L112.71134,18.9562786 L112.740149,19.0138965 C112.740149,19.0138965 115.563424,18.9562786 116.571737,18.9562786 C117.695285,18.9562786 119.913573,19.0138965 119.913573,19.0138965 L120,18.9562786 L120,18.4089089 C120,18.2648642 119.855955,18.1784374 119.711911,18.1784374 L119.395012,18.1496285 C118.242655,18.0343927 117.666476,17.6022587 117.263151,16.4787103 L111.35732,0.864268023 C111.126848,0.288089341 110.982804,0 110.579479,0 C110.147345,0 109.916873,0.288089341 109.599975,1.03712163 L103.204391,16.0177674 C102.397741,17.8615391 101.677518,18.0920106 100.409925,18.1784374 C100.26588,18.1784374 100.179453,18.2648642 100.179453,18.4089089 L100.179453,18.9562786 L100.237071,19.0138965 C100.237071,19.0138965 102.080843,18.9562786 102.829875,18.9562786 C103.52129,18.9562786 106.661464,19.0138965 106.661464,19.0138965 L106.719081,18.9562786 L106.719081,18.4089089 C106.719081,18.2648642 106.603846,18.1784374 106.48861,18.1784374 L105.653151,18.1208195 C104.58722,18.0343927 104.212704,17.4005962 104.500793,16.6803728 L106.171712,12.5030774 Z" id="wikipedia-wordmark-la" fill="#000000" fill-rule="nonzero"></path>
    </g>
</svg>

<svg xmlns="http://www.w3.org/2000/svg" width="120" height="20"><path fill="#000" fill-rule="nonzero" d="m17.862.317.057.058v.547c0 .144-.086.23-.23.23-1.585.087-2.075.865-2.478 1.902L9.363 18.639c-.173.433-.375.663-.692.663-.288 0-.518-.23-.662-.663L2.42 2.94c-.432-1.21-.691-1.643-2.19-1.787A.227.227 0 0 1 0 .922V.375L.058.317s.877.022 1.81.04l.374.006c.435.007.859.012 1.186.012h.133C4.622.37 6.712.316 6.712.316l.058.058v.547c0 .144-.086.202-.23.23l-.49.058c-1.354.173-1.585.403-1.268 1.268l4.552 12.82h.115l4.495-12.619c.403-1.095-.202-1.44-1.268-1.498l-.461-.029a.227.227 0 0 1-.23-.23V.375l.057-.058s.8.022 1.673.04l.351.006c.411.007.817.012 1.145.012h.148c1.013-.006 2.503-.058 2.503-.058Zm-.425 5.33s2.276.057 3.169.057c.27 0 .715-.007 1.18-.016l.35-.007c.757-.016 1.466-.034 1.466-.034l.029.057v.634c0 .086-.058.144-.173.144l-.605.058c-.893.086-1.21.317-1.21.893v9.593c0 .634.288 1.008 1.21 1.095l.605.057c.087 0 .173.058.173.173v.605l-.029.058s-2.19-.058-3.082-.058h-.113c-.885.005-2.941.058-2.941.058l-.058-.058v-.605c0-.115.087-.173.202-.173l.576-.057c.95-.087 1.239-.548 1.239-1.095V7.433c0-.634-.346-.807-1.239-.893l-.576-.058c-.115 0-.202-.029-.202-.115v-.663Zm20.03 10.947-.575-.461c-1.326 1.556-2.334 2.132-4.264 2.132-3.486 0-4.523-3.198-4.523-6.05 0-4.84 2.247-5.963 4.408-5.963 2.506 0 3.774 1.382 4.12 3.399l.748-.086c-.172-1.182-.317-2.392-.345-3.688-1.095 0-2.391-.46-4.696-.46-3.803 0-6.741 2.88-6.741 7.086 0 3.313 2.448 6.741 6.885 6.741 2.247 0 3.63-.835 4.984-2.65ZM45.08 6.54l.605-.058c.115 0 .173-.058.173-.144v-.634l-.03-.057s-2.217.057-2.995.057c-.893 0-3.17-.057-3.17-.057l-.028.057v.663c0 .086.086.115.202.115l.576.058c.893.086 1.239.259 1.239.893v9.593c0 .547-.289 1.008-1.24 1.095l-.575.057c-.116 0-.202.058-.202.173v.605l.058.058s2.247-.058 3.053-.058c.893 0 3.083.058 3.083.058l.029-.058v-.605c0-.115-.087-.173-.173-.173l-.605-.057c-.922-.087-1.21-.461-1.21-1.095V7.433c0-.576.317-.807 1.21-.893Zm8.68-.893c4.09 0 4.84 2.016 4.84 3.514 0 1.729-.836 4.437-4.927 4.437-.72 0-1.296-.058-1.815-.288v3.86c0 .634.346.778 1.268.922l.576.086c.115.03.202.058.202.173v.605l-.029.058s-2.305-.058-3.198-.058h-.112c-.878.005-2.855.058-2.855.058l-.029-.058v-.605c0-.115.058-.144.173-.173l.605-.086c.893-.115 1.181-.375 1.181-.922V7.49c0-.893-.374-.922-1.728-1.008-.173 0-.202-.086-.202-.144v-.663l.058-.028c.432 0 2.131.057 2.967.057.807 0 1.959-.057 3.025-.057Zm8.97 0s1.904.043 3.837.054l.446.002.442.001H71.4c.864 0 2.91-.057 2.91-.057l.057.057c.029 1.239.23 2.363.432 3.457l-.72.115c-.317-1.065-.864-2.592-2.708-2.592h-2.017c-.547 0-.835.173-.835.662v4.494h1.757c.778 0 .98-.345 1.124-.921l.144-.605c.029-.116.086-.173.173-.173h.49c.057 0 .086.029.086.086-.058.663-.173 1.47-.173 2.16 0 .721.086 1.297.173 1.989l-.058.057h-.518c-.116 0-.173-.086-.202-.144l-.115-.634c-.144-.605-.375-.893-1.124-.893H68.52v4.495c0 .547.345.72.835.72h2.046c1.757 0 2.42-1.153 2.852-2.593l.749.086c-.346 1.412-.576 2.564-.605 3.486h-7.071c-1.12.005-2.695.058-2.695.058l-.03-.058v-.634c0-.057.03-.144.145-.144l.49-.057c.921-.115 1.18-.346 1.18-.922v-4.465H63.19c-.547 0-.72.144-.835.374l-2.075 4.149c-.259.518.087.605.951.864l.288.057c.087.03.173.087.173.173v.605l-.029.058s-2.362-.058-2.91-.058h-.11c-.58.007-1.618.058-1.618.058l-.029-.058v-.605c0-.086.058-.173.173-.173.95-.086 1.498-.576 1.729-.98.576-.921 1.901-3.37 2.794-5.098.461-.922 2.103-4.206 2.103-5.013 0-.346-.202-.519-.95-.605-.173-.029-.173-.086-.173-.115v-.663Zm-9.143.835c-1.383 0-1.729.26-1.729 1.008v5.013c.577.23 1.297.26 1.873.26 1.729 0 2.564-1.038 2.564-3.256 0-2.478-1.124-3.025-2.708-3.025Zm12.197 0c-.288 0-.663.461-.98 1.152l-1.7 3.918a.487.487 0 0 0-.057.144c0 .116.173.144.576.144h2.795V7.692c0-.893-.26-1.21-.634-1.21Zm11.066 12.474.029.058s2.189-.058 3.053-.058c.893 0 1.902.058 4.206.058 3.198 0 6.77-1.498 6.77-6.54 0-3.831-2.362-6.827-7.173-6.827-.749 0-3.255.057-3.803.057-.518 0-3.053-.057-3.053-.057l-.03.057v.634c0 .086.087.144.202.144l.634.058c.95.086 1.153.086 1.153.835v9.507c0 .893-.289 1.152-1.153 1.239l-.662.057c-.116 0-.173.087-.173.173v.605Zm4.206-11.58c0-.721.72-.894 1.844-.894 4.84 0 5.502 3.486 5.502 6.482 0 4.033-1.786 5.214-4.955 5.214-2.19 0-2.391-.49-2.391-1.296V7.375Zm17.387-.836.605-.058c.116 0 .173-.058.173-.144v-.634l-.029-.057s-2.218.057-2.996.057c-.893 0-3.169-.057-3.169-.057l-.029.057v.663c0 .086.087.115.202.115l.576.058c.893.086 1.24.259 1.24.893v9.593c0 .547-.289 1.008-1.24 1.095l-.576.057c-.115 0-.202.058-.202.173v.605l.058.058s2.247-.058 3.054-.058c.893 0 3.082.058 3.082.058l.03-.058v-.605c0-.115-.087-.173-.174-.173l-.605-.057c-.922-.087-1.21-.461-1.21-1.095V7.433c0-.576.317-.807 1.21-.893Zm8.536 3.889 2.881-7.318h.058l2.794 7.692H107.7c-.634 0-.836-.086-.72-.374Zm-.806 2.074c.144-.374.317-.49 1.008-.49h5.992l1.758 4.869c.288.807-.116 1.152-1.21 1.239l-.807.057c-.144 0-.202.087-.202.23v.548l.03.058s2.822-.058 3.83-.058c1.124 0 3.343.058 3.343.058l.086-.058v-.547c0-.144-.144-.23-.288-.23l-.317-.03c-1.152-.115-1.729-.547-2.132-1.67L111.357.864c-.23-.576-.374-.864-.778-.864-.432 0-.662.288-.979 1.037l-6.396 14.98c-.806 1.845-1.526 2.075-2.794 2.161-.144 0-.23.087-.23.23v.548l.057.058s1.844-.058 2.593-.058c.691 0 3.831.058 3.831.058l.058-.058v-.547a.227.227 0 0 0-.23-.23l-.836-.058c-1.066-.087-1.44-.72-1.152-1.44l1.67-4.178Z"/></svg>
